X: 10173
M: C|
L: 1/8
K: C
c2ce dBG_B | AFF2 GECE |\
c2ce dBG_B | AFF2 GECE |\
f |\
egec Bdg2 | Acf2 Ace2 |\
egec BdgB | AcfA GceG |\


